build-source/logos/cineplusemotionhd.default.svg

<svg xmlns="http://www.w3.org/2000/svg" viewBox="0 0 600 359.6"><defs><clipPath id="0"><path d="m44.21 309.2h22.06v10.761h-22.06v-10.761"/></clipPath><clipPath id="1"><path d="m46.23 309.2h17.955v10.761h-17.955v-10.761"/></clipPath></defs><g transform="translate(-411.43-572.56)"><g clip-path="url(#0)" transform="matrix(33.41688 0 0-33.41688-1133.33 11264.83)"><path d="m46.23 313.63h14.717v4.648h-14.717v-4.648" fill="#413e47"/><g fill="#fff"><path d="m0 0c0-.038-.031-.069-.097-.093-.184-.062-.354-.094-.514-.094-.24 0-.469.059-.691.18-.445.245-.692.657-.692 1.165 0 .28.077.532.226.76.153.228.358.397.615.504.167.073.344.107.535.107.128 0 .267-.02.417-.058.045-.011.08-.025.111-.038l.038-.018c.031-.014.048-.038.048-.069v-.667c0-.017-.006-.024-.017-.024-.003 0-.014.007-.031.017-.052.052-.128.094-.229.128-.108.038-.205.056-.289.056-.302 0-.555-.16-.67-.425-.038-.087-.055-.18-.055-.28 0-.197.072-.356.218-.481.136-.114.303-.172.501-.172.225 0 .399.062.527.19.011.014.021.02.028.02.014 0 .021-.02.021-.065v-.643" transform="translate(49.01 314.88)"/><path d="m49.5 314.77h.677v2.591h-.677v-2.591"/><path d="m0 0l-1.244 1.586v-1.586h-.677v2.591h.677l1.244-1.586v1.586h.677v-2.591h-.677" transform="translate(52.641 314.77)"/></g></g><g clip-path="url(#1)" transform="matrix(33.41688 0 0-33.41688-1133.33 11264.83)"><path d="m0 0v2.591h.226l.038.108h1.028l-.038-.108h.226v-.57h-.803v-.432h.761v-.57h-.761v-.449h.803v-.57h-1.48" fill="#fff" transform="translate(53.793 314.77)"/><path d="m0 0c-4.649-.503-9.298-1-13.947-1.509-.144 1.619-.287 3.237-.431 4.856 4.635.263 9.27.526 13.905.789.158-1.378.315-2.757.473-4.136" fill="#eb0d8a" transform="translate(63.771 310.71)"/></g><g clip-path="url(#0)" transform="matrix(33.41688 0 0-33.41688-1133.33 11264.83)" fill="#fff"><path d="m0 0c.096.23.266.424.507.443.219.017.486-.346.486-.346.016 0 .31.407.559.427.187.014.429-.055.452-.292.046-.468.069-.703.115-1.171.095.008.142.013.237.022.005-.045.007-.067.012-.112-.368-.035-.552-.053-.919-.087-.004.045-.006.067-.011.112.076.008.115.011.19.019-.043.447-.064.67-.108 1.117-.0001.109-.032.221-.164.21-.212-.016-.343-.337-.323-.547.032-.332.048-.497.08-.829.076.007.114.011.19.018.004-.046.006-.068.011-.114-.348-.033-.523-.049-.871-.083-.004.046-.006.069-.011.115.076.007.114.0001.191.018-.039.403-.058.605-.097 1.01-.025.269-.058.344-.193.333-.117-.009-.338-.204-.304-.568.031-.329.047-.493.078-.822.076.007.114.011.19.018.004-.046.006-.069.011-.114-.353-.034-.529-.051-.882-.085-.004.047-.006.07-.011.116.081.008.121.011.201.019-.052.559-.078.839-.13 1.398-.094-.007-.141-.011-.234-.018-.005.046-.007.069-.011.115.094.007.141.011.234.019.164.012.324.041.488.054.015-.157.022-.236.037-.393" transform="translate(53.1 311.99)"/><path d="m0 0c.086.007.129.001.215.016.095.007.191.041.285.059.021-.199.031-.299.051-.499.112.008.167.013.278.021.005-.043.007-.064.011-.108-.111-.008-.166-.013-.277-.022.043-.42.065-.63.108-1.05.008-.077.002-.199.108-.189.143.013.156.135.165.261.044-.005.065-.008.109-.014-.03-.318-.216-.449-.505-.477-.341-.033-.356.124-.377.319-.045.444-.067.666-.113 1.11-.089-.007-.133-.001-.223-.018-.004.044-.006.066-.011.11.089.007.134.001.223.017-.019.186-.028.279-.047.464" transform="translate(57.29 313.13)"/><path d="m0 0c.127.286.312.374.56.394.223.017.421-.034.453-.319.046-.406.069-.609.115-1.014.09.008.135.012.226.021.005-.041.007-.062.012-.102-.366-.035-.549-.053-.915-.088-.004.042-.007.062-.011.104.079.007.118.011.197.018-.042.375-.062.562-.104.937-.027.235-.087.282-.189.273-.234-.018-.332-.331-.31-.535.032-.289.048-.434.08-.724.078.007.117.011.194.018.005-.041.007-.062.012-.103-.368-.035-.551-.053-.919-.088-.004.042-.006.063-.011.104.094.009.141.014.234.023-.055.505-.083.759-.138 1.264-.094-.007-.141-.011-.235-.018-.004.041-.006.062-.011.104.094.007.14.011.234.018.164.013.324.041.488.053.015-.136.023-.204.038-.34" transform="translate(61.828 312.72)"/><path d="m0 0c-.024.24-.071.304-.316.286-.223-.017-.278-.089-.254-.33.033-.338.05-.507.084-.845.023-.23.139-.283.314-.267.176.016.279.088.256.317-.033.335-.05.503-.084.839m.635-.377c.051-.504-.325-.839-.797-.882-.523-.048-.915.298-.958.737-.051.523.356.878.794.911.439.031.909-.253.961-.766" transform="translate(56.43 312.61)"/><path d="m0 0c-.025.229-.072.29-.317.272-.223-.016-.278-.085-.253-.316.034-.323.051-.484.086-.807.023-.219.139-.27.315-.254.176.016.279.086.255.304-.034.321-.052.481-.086.801m.636-.357c.053-.482-.323-.803-.795-.846-.522-.048-.916.282-.96.701-.053.499.353.84.792.872.438.032.909-.238.963-.727" transform="translate(60.39 312.92)"/><path d="m0 0c-.101-.008-.151-.012-.252-.02-.005.043-.007.065-.012.108.101.008.152.012.253.02.168.013.334.041.502.054.06-.569.09-.853.15-1.422.089.009.134.013.223.021.005-.043.007-.064.012-.107-.387-.037-.58-.055-.967-.092-.004.043-.006.065-.011.108.095.009.143.014.238.022-.054.524-.082.785-.136 1.308" transform="translate(58.51 312.68)"/><path d="m0 0c-.02.215-.029.322-.049.537-.013.142-.127.222-.358.205-.207-.015-.284-.126-.27-.276.019-.207.028-.31.047-.518.252.021.378.031.63.052m-.617-.195c.026-.285.039-.427.064-.712.026-.286.175-.372.425-.348.381.036.66.277.731.711.046-.013.069-.02.115-.033-.078-.517-.421-.779-.866-.824-.646-.066-1.183.392-1.239 1.035-.055.629.382 1.204 1.02 1.254.473.037.968-.308 1.02-.873.012-.131-.139-.116-.217-.122-.421-.035-.632-.053-1.053-.088" transform="translate(51.55 311.86)"/><path d="m0 0c.015-.145-.092-.283-.23-.294-.139-.001-.276.111-.292.257-.015.146.1.281.234.29.135.009.272-.108.288-.253" transform="translate(58.942 313.37)"/><path d="m0 0c-.019.202-.17.319-.338.309-.206-.013-.293-.172-.272-.404.004-.043.033-.092.061-.134.028-.042.055-.084.058-.112.009-.099-.19-.146-.243-.15.015-.055.022-.083.037-.138.3.041.734.228.697.629" transform="translate(51.673 313.52)"/></g><g clip-path="url(#1)" transform="matrix(33.41688 0 0-33.41688-1133.33 11264.83)"><path d="m0 0v-.933c0-.035-.007-.049-.035-.049h-.711c-.024 0-.038.018-.038.042v.933c0 .038-.014.052-.045.052h-.922c-.028 0-.042.017-.042.049v.707c0 .028.011.041.039.041h.929c.027 0 .041.014.041.045v.801c0 .021.014.035.035.035h.708c.027 0 .041-.001.041-.035v-.801c0-.037.007-.045.038-.045h.93c.027 0 .038-.013.038-.045v-.711c0-.024-.014-.041-.038-.041h-.919c-.038 0-.049-.007-.049-.045" fill="#fff" transform="translate(59.03 315.69)"/><path d="m0 0c-.103.775-.207 1.549-.31 2.324h-4.958c.207-1.01.413-2.01.62-3.02 1.549.232 3.099.464 4.648.697" fill="#e91f26" transform="translate(64.18 317.64)"/></g><g clip-path="url(#0)" transform="matrix(33.41688 0 0-33.41688-1133.33 11264.83)" fill="#fff"><path d="m0 0c-.052.283-.078.424-.129.707-.252-.02-.377-.029-.628-.049.056-.292.084-.438.14-.73-.172-.02-.258-.03-.429-.05-.119.604-.238 1.208-.356 1.812.178.005.267.006.446.011.052-.274.078-.412.131-.686.253.015.379.023.632.037-.048.266-.072.399-.121.664.179.004.268.006.447.011.098-.559.197-1.118.295-1.677-.171-.02-.257-.03-.428-.05" transform="translate(61.12 317.65)"/><path d="m0 0c-.04-.002-.06-.003-.1-.004.058-.356.087-.534.144-.889.039.003.059.005.097.009.287.027.447.215.407.475-.039.26-.256.422-.548.409m.302-1.219c-.252-.03-.378-.045-.63-.074-.091.543-.183 1.085-.274 1.628.262.006.394.009.656.015.434-.002.887-.301.951-.727.062-.409-.29-.786-.703-.842" transform="translate(62.41 319.06)"/></g></g></svg>

<?xml version="1.0" encoding="UTF-8" standalone="no"?>
<!-- Created with Inkscape (http://www.inkscape.org/) -->

<svg
   xmlns:dc="http://purl.org/dc/elements/1.1/"
   xmlns:cc="http://creativecommons.org/ns#"
   xmlns:rdf="http://www.w3.org/1999/02/22-rdf-syntax-ns#"
   xmlns:svg="http://www.w3.org/2000/svg"
   xmlns="http://www.w3.org/2000/svg"
   version="1.1"
   width="600"
   height="359.59601"
   id="svg129734">
  <defs
     id="defs129736">
    <clipPath
       id="clipPath121961">
      <path
         d="m 44.211,309.205 22.064,0 0,10.761 -22.064,0 0,-10.761 z"
         id="path121963" />
    </clipPath>
    <clipPath
       id="clipPath121945">
      <path
         d="m 46.227,309.205 17.955,0 0,10.761 -17.955,0 0,-10.761 z"
         id="path121947" />
    </clipPath>
    <clipPath
       id="clipPath121901">
      <path
         d="m 44.211,309.205 22.064,0 0,10.761 -22.064,0 0,-10.761 z"
         id="path121903" />
    </clipPath>
    <clipPath
       id="clipPath121885">
      <path
         d="m 46.227,309.205 17.955,0 0,10.761 -17.955,0 0,-10.761 z"
         id="path121887" />
    </clipPath>
    <clipPath
       id="clipPath121865">
      <path
         d="m 44.211,309.205 22.064,0 0,10.761 -22.064,0 0,-10.761 z"
         id="path121867" />
    </clipPath>
  </defs>
  <metadata
     id="metadata129739">
    <rdf:RDF>
      <cc:Work
         rdf:about="">
        <dc:format>image/svg+xml</dc:format>
        <dc:type
           rdf:resource="http://purl.org/dc/dcmitype/StillImage" />
        <dc:title></dc:title>
      </cc:Work>
    </rdf:RDF>
  </metadata>
  <g
     transform="translate(-411.42863,-572.56386)"
     id="layer1">
    <g
       id="g129859">
      <g
         transform="matrix(33.416876,0,0,-33.416876,-1133.3333,11264.825)"
         id="g121861">
        <g
           clip-path="url(#clipPath121865)"
           id="g121863">
          <path
             d="m 46.227,313.631 14.717,0 0,4.648 -14.717,0 0,-4.648 z"
             id="path121869"
             style="fill:#413e47;fill-opacity:1;fill-rule:nonzero;stroke:none" />
          <g
             transform="translate(49.006104,314.883)"
             id="g121871">
            <path
               d="m 0,0 c 0,-0.038 -0.031,-0.069 -0.097,-0.093 -0.184,-0.062 -0.354,-0.094 -0.514,-0.094 -0.24,0 -0.469,0.059 -0.691,0.18 -0.445,0.245 -0.692,0.657 -0.692,1.165 0,0.28 0.077,0.532 0.226,0.76 0.153,0.228 0.358,0.397 0.615,0.504 0.167,0.073 0.344,0.107 0.535,0.107 0.128,0 0.267,-0.02 0.417,-0.058 0.045,-0.011 0.08,-0.025 0.111,-0.038 l 0.038,-0.018 c 0.031,-0.014 0.048,-0.038 0.048,-0.069 l 0,-0.667 c 0,-0.017 -0.006,-0.024 -0.017,-0.024 -0.003,0 -0.014,0.007 -0.031,0.017 -0.052,0.052 -0.128,0.094 -0.229,0.128 -0.108,0.038 -0.205,0.056 -0.289,0.056 -0.302,0 -0.555,-0.16 -0.67,-0.425 -0.038,-0.087 -0.055,-0.18 -0.055,-0.28 0,-0.197 0.072,-0.356 0.218,-0.481 0.136,-0.114 0.303,-0.172 0.501,-0.172 0.225,0 0.399,0.062 0.527,0.19 0.011,0.014 0.021,0.02 0.028,0.02 C -0.007,0.708 0,0.688 0,0.643 L 0,0"
               id="path121873"
               style="fill:#ffffff;fill-opacity:1;fill-rule:nonzero;stroke:none" />
          </g>
          <path
             d="m 49.502,314.766 0.677,0 0,2.591 -0.677,0 0,-2.591 z"
             id="path121875"
             style="fill:#ffffff;fill-opacity:1;fill-rule:nonzero;stroke:none" />
          <g
             transform="translate(52.641006,314.7657)"
             id="g121877">
            <path
               d="m 0,0 -1.244,1.586 0,-1.586 -0.677,0 0,2.591 0.677,0 L 0,1.005 0,2.591 0.677,2.591 0.677,0 0,0 z"
               id="path121879"
               style="fill:#ffffff;fill-opacity:1;fill-rule:nonzero;stroke:none" />
          </g>
        </g>
      </g>
      <g
         transform="matrix(33.416876,0,0,-33.416876,-1133.3333,11264.825)"
         id="g121881">
        <g
           clip-path="url(#clipPath121885)"
           id="g121883">
          <g
             transform="translate(53.793198,314.7657)"
             id="g121889">
            <path
               d="m 0,0 0,2.591 0.226,0 0.038,0.108 1.028,0 -0.038,-0.108 0.226,0 0,-0.57 -0.803,0 0,-0.432 0.761,0 0,-0.57 -0.761,0 0,-0.449 0.803,0 L 1.48,0 0,0 z"
               id="path121891"
               style="fill:#ffffff;fill-opacity:1;fill-rule:nonzero;stroke:none" />
          </g>
          <g
             transform="translate(63.771301,310.7123)"
             id="g121893">
            <path
               d="m 0,0 c -4.649,-0.503 -9.298,-1.005 -13.947,-1.509 -0.144,1.619 -0.287,3.237 -0.431,4.856 4.635,0.263 9.27,0.526 13.905,0.789 C -0.315,2.758 -0.158,1.379 0,0"
               id="path121895"
               style="fill:#eb0d8a;fill-opacity:1;fill-rule:nonzero;stroke:none" />
          </g>
        </g>
      </g>
      <g
         transform="matrix(33.416876,0,0,-33.416876,-1133.3333,11264.825)"
         id="g121897">
        <g
           clip-path="url(#clipPath121901)"
           id="g121899">
          <g
             transform="translate(53.095596,311.9865)"
             id="g121905">
            <path
               d="M 0,0 C 0.096,0.23 0.266,0.424 0.507,0.443 0.726,0.46 0.993,0.097 0.993,0.097 1.009,0.096 1.303,0.504 1.552,0.524 1.739,0.538 1.981,0.469 2.004,0.232 2.05,-0.236 2.073,-0.471 2.119,-0.939 2.214,-0.931 2.261,-0.926 2.356,-0.917 2.361,-0.962 2.363,-0.984 2.368,-1.029 2,-1.064 1.816,-1.082 1.449,-1.116 1.445,-1.071 1.443,-1.049 1.438,-1.004 1.514,-0.996 1.553,-0.993 1.628,-0.985 1.585,-0.538 1.564,-0.315 1.52,0.132 1.51,0.241 1.488,0.353 1.356,0.342 1.144,0.326 1.013,0.005 1.033,-0.205 c 0.032,-0.332 0.048,-0.497 0.08,-0.829 0.076,0.007 0.114,0.011 0.19,0.018 C 1.307,-1.062 1.309,-1.084 1.314,-1.13 0.966,-1.163 0.791,-1.179 0.443,-1.213 0.439,-1.167 0.437,-1.144 0.432,-1.098 0.508,-1.091 0.546,-1.088 0.623,-1.08 0.584,-0.677 0.565,-0.475 0.526,-0.072 0.501,0.197 0.468,0.272 0.333,0.261 0.216,0.252 -0.005,0.057 0.029,-0.307 0.06,-0.636 0.076,-0.8 0.107,-1.129 c 0.076,0.007 0.114,0.011 0.19,0.018 0.004,-0.046 0.006,-0.069 0.011,-0.114 -0.353,-0.034 -0.529,-0.051 -0.882,-0.085 -0.004,0.047 -0.006,0.07 -0.011,0.116 0.081,0.008 0.121,0.011 0.201,0.019 -0.052,0.559 -0.078,0.839 -0.13,1.398 -0.094,-0.007 -0.141,-0.011 -0.234,-0.018 -0.005,0.046 -0.007,0.069 -0.011,0.115 0.094,0.007 0.141,0.011 0.234,0.019 0.164,0.012 0.324,0.041 0.488,0.054 C -0.022,0.236 -0.015,0.157 0,0"
               id="path121907"
               style="fill:#ffffff;fill-opacity:1;fill-rule:nonzero;stroke:none" />
          </g>
          <g
             transform="translate(57.289597,313.1272)"
             id="g121909">
            <path
               d="M 0,0 C 0.086,0.007 0.129,0.01 0.215,0.016 0.31,0.023 0.406,0.057 0.5,0.075 0.521,-0.124 0.531,-0.224 0.551,-0.424 0.663,-0.416 0.718,-0.411 0.829,-0.403 0.834,-0.446 0.836,-0.467 0.84,-0.511 0.729,-0.519 0.674,-0.524 0.563,-0.533 c 0.043,-0.42 0.065,-0.63 0.108,-1.05 0.008,-0.077 0.002,-0.199 0.108,-0.189 0.143,0.013 0.156,0.135 0.165,0.261 0.044,-0.005 0.065,-0.008 0.109,-0.014 -0.03,-0.318 -0.216,-0.449 -0.505,-0.477 -0.341,-0.033 -0.356,0.124 -0.377,0.319 -0.045,0.444 -0.067,0.666 -0.113,1.11 -0.089,-0.007 -0.133,-0.01 -0.223,-0.018 -0.004,0.044 -0.006,0.066 -0.011,0.11 0.089,0.007 0.134,0.01 0.223,0.017 C 0.028,-0.278 0.019,-0.185 0,0"
               id="path121911"
               style="fill:#ffffff;fill-opacity:1;fill-rule:nonzero;stroke:none" />
          </g>
          <g
             transform="translate(61.8284,312.71581)"
             id="g121913">
            <path
               d="M 0,0 C 0.127,0.286 0.312,0.374 0.56,0.394 0.783,0.411 0.981,0.36 1.013,0.075 1.059,-0.331 1.082,-0.534 1.128,-0.939 1.218,-0.931 1.263,-0.927 1.354,-0.918 1.359,-0.959 1.361,-0.98 1.366,-1.02 1,-1.055 0.817,-1.073 0.451,-1.108 0.447,-1.066 0.444,-1.046 0.44,-1.004 0.519,-0.997 0.558,-0.993 0.637,-0.986 0.595,-0.611 0.575,-0.424 0.533,-0.049 0.506,0.186 0.446,0.233 0.344,0.224 0.11,0.206 0.012,-0.107 0.034,-0.311 0.066,-0.6 0.082,-0.745 0.114,-1.035 c 0.078,0.007 0.117,0.011 0.194,0.018 0.005,-0.041 0.007,-0.062 0.012,-0.103 -0.368,-0.035 -0.551,-0.053 -0.919,-0.088 -0.004,0.042 -0.006,0.063 -0.011,0.104 0.094,0.009 0.141,0.014 0.234,0.023 -0.055,0.505 -0.083,0.759 -0.138,1.264 C -0.608,0.176 -0.655,0.172 -0.749,0.165 -0.753,0.206 -0.755,0.227 -0.76,0.269 -0.666,0.276 -0.62,0.28 -0.526,0.287 -0.362,0.3 -0.202,0.328 -0.038,0.34 -0.023,0.204 -0.015,0.136 0,0"
               id="path121915"
               style="fill:#ffffff;fill-opacity:1;fill-rule:nonzero;stroke:none" />
          </g>
          <g
             transform="translate(56.432693,312.61411)"
             id="g121917">
            <path
               d="m 0,0 c -0.024,0.24 -0.071,0.304 -0.316,0.286 -0.223,-0.017 -0.278,-0.089 -0.254,-0.33 0.033,-0.338 0.05,-0.507 0.084,-0.845 0.023,-0.23 0.139,-0.283 0.314,-0.267 0.176,0.016 0.279,0.088 0.256,0.317 C 0.051,-0.504 0.034,-0.336 0,0 M 0.635,-0.377 C 0.686,-0.881 0.31,-1.216 -0.162,-1.259 -0.685,-1.307 -1.077,-0.961 -1.12,-0.522 -1.171,0.001 -0.764,0.356 -0.326,0.389 0.113,0.42 0.583,0.136 0.635,-0.377"
               id="path121919"
               style="fill:#ffffff;fill-opacity:1;fill-rule:nonzero;stroke:none" />
          </g>
          <g
             transform="translate(60.393906,312.92191)"
             id="g121921">
            <path
               d="M 0,0 C -0.025,0.229 -0.072,0.29 -0.317,0.272 -0.54,0.256 -0.595,0.187 -0.57,-0.044 c 0.034,-0.323 0.051,-0.484 0.086,-0.807 0.023,-0.219 0.139,-0.27 0.315,-0.254 0.176,0.016 0.279,0.086 0.255,0.304 C 0.052,-0.48 0.034,-0.32 0,0 m 0.636,-0.357 c 0.053,-0.482 -0.323,-0.803 -0.795,-0.846 -0.522,-0.048 -0.916,0.282 -0.96,0.701 -0.053,0.499 0.353,0.84 0.792,0.872 0.438,0.032 0.909,-0.238 0.963,-0.727"
               id="path121923"
               style="fill:#ffffff;fill-opacity:1;fill-rule:nonzero;stroke:none" />
          </g>
          <g
             transform="translate(58.509293,312.67751)"
             id="g121925">
            <path
               d="m 0,0 c -0.101,-0.008 -0.151,-0.012 -0.252,-0.02 -0.005,0.043 -0.007,0.065 -0.012,0.108 0.101,0.008 0.152,0.012 0.253,0.02 0.168,0.013 0.334,0.041 0.502,0.054 0.06,-0.569 0.09,-0.853 0.15,-1.422 0.089,0.009 0.134,0.013 0.223,0.021 0.005,-0.043 0.007,-0.064 0.012,-0.107 -0.387,-0.037 -0.58,-0.055 -0.967,-0.092 -0.004,0.043 -0.006,0.065 -0.011,0.108 0.095,0.009 0.143,0.014 0.238,0.022 C 0.082,-0.784 0.054,-0.523 0,0"
               id="path121927"
               style="fill:#ffffff;fill-opacity:1;fill-rule:nonzero;stroke:none" />
          </g>
          <g
             transform="translate(51.546005,311.8629)"
             id="g121929">
            <path
               d="M 0,0 C -0.02,0.215 -0.029,0.322 -0.049,0.537 -0.062,0.679 -0.176,0.759 -0.407,0.742 -0.614,0.727 -0.691,0.616 -0.677,0.466 -0.658,0.259 -0.649,0.156 -0.63,-0.052 -0.378,-0.031 -0.252,-0.021 0,0 m -0.617,-0.195 c 0.026,-0.285 0.039,-0.427 0.064,-0.712 0.026,-0.286 0.175,-0.372 0.425,-0.348 0.381,0.036 0.66,0.277 0.731,0.711 0.046,-0.013 0.069,-0.02 0.115,-0.033 -0.078,-0.517 -0.421,-0.779 -0.866,-0.824 -0.646,-0.066 -1.183,0.392 -1.239,1.035 -0.055,0.629 0.382,1.204 1.02,1.254 C 0.106,0.925 0.601,0.58 0.653,0.015 0.665,-0.116 0.514,-0.101 0.436,-0.107 0.015,-0.142 -0.196,-0.16 -0.617,-0.195"
               id="path121931"
               style="fill:#ffffff;fill-opacity:1;fill-rule:nonzero;stroke:none" />
          </g>
          <g
             transform="translate(58.942398,313.3685)"
             id="g121933">
            <path
               d="m 0,0 c 0.015,-0.145 -0.092,-0.283 -0.23,-0.294 -0.139,-0.01 -0.276,0.111 -0.292,0.257 -0.015,0.146 0.1,0.281 0.234,0.29 C -0.153,0.262 -0.016,0.145 0,0"
               id="path121935"
               style="fill:#ffffff;fill-opacity:1;fill-rule:nonzero;stroke:none" />
          </g>
          <g
             transform="translate(51.673294,313.5237)"
             id="g121937">
            <path
               d="M 0,0 C -0.019,0.202 -0.17,0.319 -0.338,0.309 -0.544,0.296 -0.631,0.137 -0.61,-0.095 c 0.004,-0.043 0.033,-0.092 0.061,-0.134 0.028,-0.042 0.055,-0.084 0.058,-0.112 0.009,-0.099 -0.19,-0.146 -0.243,-0.15 0.015,-0.055 0.022,-0.083 0.037,-0.138 C -0.397,-0.588 0.037,-0.401 0,0"
               id="path121939"
               style="fill:#ffffff;fill-opacity:1;fill-rule:nonzero;stroke:none" />
          </g>
        </g>
      </g>
      <g
         transform="matrix(33.416876,0,0,-33.416876,-1133.3333,11264.825)"
         id="g121941">
        <g
           clip-path="url(#clipPath121945)"
           id="g121943">
          <g
             transform="translate(59.033203,315.6935)"
             id="g121949">
            <path
               d="m 0,0 0,-0.933 c 0,-0.035 -0.007,-0.049 -0.035,-0.049 l -0.711,0 c -0.024,0 -0.038,0.018 -0.038,0.042 l 0,0.933 c 0,0.038 -0.014,0.052 -0.045,0.052 l -0.922,0 c -0.028,0 -0.042,0.017 -0.042,0.049 l 0,0.707 c 0,0.028 0.011,0.041 0.039,0.041 l 0.929,0 c 0.027,0 0.041,0.014 0.041,0.045 l 0,0.801 c 0,0.021 0.014,0.035 0.035,0.035 l 0.708,0 C -0.014,1.723 0,1.713 0,1.688 L 0,0.887 C 0,0.85 0.007,0.842 0.038,0.842 l 0.93,0 c 0.027,0 0.038,-0.013 0.038,-0.045 l 0,-0.711 C 1.006,0.062 0.992,0.045 0.968,0.045 l -0.919,0 C 0.011,0.045 0,0.038 0,0"
               id="path121951"
               style="fill:#ffffff;fill-opacity:1;fill-rule:nonzero;stroke:none" />
          </g>
          <g
             transform="translate(64.183105,317.64191)"
             id="g121953">
            <path
               d="m 0,0 c -0.103,0.775 -0.207,1.549 -0.31,2.324 l -4.958,0 C -5.061,1.317 -4.855,0.309 -4.648,-0.697 -3.099,-0.465 -1.549,-0.233 0,0"
               id="path121955"
               style="fill:#e91f26;fill-opacity:1;fill-rule:nonzero;stroke:none" />
          </g>
        </g>
      </g>
      <g
         transform="matrix(33.416876,0,0,-33.416876,-1133.3333,11264.825)"
         id="g121957">
        <g
           clip-path="url(#clipPath121961)"
           id="g121959">
          <g
             transform="translate(61.120804,317.653)"
             id="g121965">
            <path
               d="m 0,0 c -0.052,0.283 -0.078,0.424 -0.129,0.707 -0.252,-0.02 -0.377,-0.029 -0.628,-0.049 0.056,-0.292 0.084,-0.438 0.14,-0.73 -0.172,-0.02 -0.258,-0.03 -0.429,-0.05 -0.119,0.604 -0.238,1.208 -0.356,1.812 0.178,0.005 0.267,0.006 0.446,0.011 0.052,-0.274 0.078,-0.412 0.131,-0.686 0.253,0.015 0.379,0.023 0.632,0.037 -0.048,0.266 -0.072,0.399 -0.121,0.664 0.179,0.004 0.268,0.006 0.447,0.011 C 0.231,1.168 0.33,0.609 0.428,0.05 0.257,0.03 0.171,0.02 0,0"
               id="path121967"
               style="fill:#ffffff;fill-opacity:1;fill-rule:nonzero;stroke:none" />
          </g>
          <g
             transform="translate(62.411896,319.05791)"
             id="g121969">
            <path
               d="m 0,0 c -0.04,-0.002 -0.06,-0.003 -0.1,-0.004 0.058,-0.356 0.087,-0.534 0.144,-0.889 0.039,0.003 0.059,0.005 0.097,0.009 0.287,0.027 0.447,0.215 0.407,0.475 C 0.509,-0.149 0.292,0.013 0,0 M 0.302,-1.219 C 0.05,-1.249 -0.076,-1.264 -0.328,-1.293 -0.419,-0.75 -0.511,-0.208 -0.602,0.335 -0.34,0.341 -0.208,0.344 0.054,0.35 0.488,0.348 0.941,0.049 1.005,-0.377 1.067,-0.786 0.715,-1.163 0.302,-1.219"
               id="path121971"
               style="fill:#ffffff;fill-opacity:1;fill-rule:nonzero;stroke:none" />
          </g>
        </g>
      </g>
    </g>
  </g>
</svg>
